X: 435
T: Yixin xiaohuahua shuobuwan
%%abc-version 2.0
%%abcx-abcm2ps-target-version 5.9.1 (29 Sep 2008)
%%abc-creator hum2abc beta
%%abcx-conversion-date 2013/10/02 07:52:30
%%abc-edited-by Helmut Schaffrath
%%humdrum-veritas 2133375715
%%humdrum-veritas-data 2781019959
%%continueall 1
%%barnumbers 0
L: 1/8
M: 2/4
K: D
B B d f [I:setbarnb 1]| 
A F E D | 
B2d f | 
e4 | 
B B d f | 
A F E D | 
B B d f | 
A4 |]  



